X: 5
T: The Christ Child's Lullaby
C:traditional
Z:DW
M:3/4
L:1/4
K:G
d | "D"d2 e | a a2 | "Am"g a2 | "D"d2 f | f2 d | "Am"e a2 | "C"g a2 | "Am"c2 e |
"D"d2 e | a2 a | "Am"g a2 | "D"d2 d | d "Am"A2 | "C"c2 d | "D"e/2 d/2-d2- | d2 |]

%%sep 1 1 500

